icons/op-pdf-description-16.svg

<svg width="16" height="16" viewBox="0 0 16 16" fill="none" xmlns="http://www.w3.org/2000/svg">
<path fill-rule="evenodd" clip-rule="evenodd" d="M5 13.1505C5 13.3536 5.10642 13.4727 5.28696 13.4727C5.46749 13.4727 5.57391 13.3536 5.57391 13.1505V12.5H6.08702C6.66473 12.5 7.06571 12.0937 7.06571 11.4863C7.06571 10.8769 6.67803 10.4727 6.11552 10.4727H5.28696C5.10642 10.4727 5 10.5917 5 10.7948V13.1505ZM5.96159 12.0157H5.57391V10.9631H5.96349C6.29226 10.9631 6.48229 11.1519 6.48229 11.4884C6.48229 11.827 6.29036 12.0157 5.96159 12.0157Z" fill="#1F2328"/>
<path fill-rule="evenodd" clip-rule="evenodd" d="M7.42534 13.1095C7.42534 13.3147 7.53176 13.4337 7.71229 13.4337H8.47244C9.29531 13.4337 9.7799 12.8817 9.7799 11.9419C9.7799 11.0021 9.29531 10.4727 8.47244 10.4727H7.71229C7.53176 10.4727 7.42534 10.5917 7.42534 10.7948V13.1095ZM8.40403 12.9207H7.99925V10.9836H8.40403C8.90953 10.9836 9.19459 11.3242 9.19459 11.9439C9.19459 12.5841 8.91713 12.9207 8.40403 12.9207Z" fill="#1F2328"/>
<path d="M10.4569 13.4727C10.2764 13.4727 10.1699 13.3536 10.1699 13.1505V10.7948C10.1699 10.5917 10.2764 10.4727 10.4569 10.4727H11.7396C11.8974 10.4727 12 10.5691 12 10.7292C12 10.8892 11.8955 10.9857 11.7396 10.9857H10.7439V11.7777H11.6465C11.7948 11.7777 11.8917 11.8701 11.8917 12.0219C11.8917 12.1758 11.7967 12.2681 11.6465 12.2681H10.7439V13.1505C10.7439 13.3536 10.6374 13.4727 10.4569 13.4727Z" fill="#1F2328"/>
<path d="M5.75 5C5.33579 5 5 5.33579 5 5.75C5 6.16421 5.33579 6.5 5.75 6.5H11.25C11.6642 6.5 12 6.16421 12 5.75C12 5.33579 11.6642 5 11.25 5H5.75Z" fill="#1F2328"/>
<path d="M5 8.25C5 7.83579 5.33579 7.5 5.75 7.5H11.25C11.6642 7.5 12 7.83579 12 8.25C12 8.66421 11.6642 9 11.25 9H5.75C5.33579 9 5 8.66421 5 8.25Z" fill="#1F2328"/>
<path fill-rule="evenodd" clip-rule="evenodd" d="M2 1.75C2 0.783502 2.7835 0 3.75 0H10.3358C10.7999 0 11.245 0.184374 11.5732 0.512563L14.4874 3.42678C14.8156 3.75497 15 4.20008 15 4.66421V14.25C15 15.2165 14.2165 16 13.25 16H3.75C2.7835 16 2 15.2165 2 14.25V1.75ZM3.75 1.5C3.61193 1.5 3.5 1.61193 3.5 1.75V14.25C3.5 14.3881 3.61193 14.5 3.75 14.5H13.25C13.3881 14.5 13.5 14.3881 13.5 14.25V4.66421C13.5 4.59791 13.4737 4.53432 13.4268 4.48744L10.5126 1.57322C10.4657 1.52634 10.4021 1.5 10.3358 1.5H3.75Z" fill="#1F2328"/>
</svg>

<svg xmlns="http://www.w3.org/2000/svg" width="16" height="16" viewBox="0 0 16 16"><path d="M5 13.151v-2.356c0-.203.106-.322.287-.322h.829c.562 0 .95.404.95 1.013 0 .608-.401 1.014-.979 1.014h-.513v.651c0 .203-.107.322-.287.322-.181 0-.287-.119-.287-.322Zm.962-1.135c.328 0 .52-.189.52-.528 0-.336-.19-.525-.519-.525h-.389v1.053Zm1.463 1.093v-2.314c0-.203.107-.322.287-.322h.76c.823 0 1.308.529 1.308 1.469 0 .94-.485 1.492-1.308 1.492h-.76c-.18 0-.287-.119-.287-.325Zm.979-.188c.513 0 .791-.337.791-.977 0-.62-.285-.96-.791-.96h-.405v1.937Zm2.053.552c-.181 0-.287-.119-.287-.323v-2.355c0-.203.106-.322.287-.322h1.283c.157 0 .26.096.26.256s-.104.257-.26.257h-.996v.792h.902c.149 0 .246.092.246.244 0 .154-.095.246-.246.246h-.902v.882c0 .204-.107.323-.287.323ZM5.75 5a.75.75 0 0 0 0 1.5h5.5a.75.75 0 0 0 0-1.5h-5.5ZM5 8.25a.75.75 0 0 1 .75-.75h5.5a.75.75 0 0 1 0 1.5h-5.5A.75.75 0 0 1 5 8.25Z"/><path d="M2 1.75C2 .784 2.783 0 3.75 0h6.586c.464 0 .909.184 1.237.513l2.914 2.914c.329.328.513.773.513 1.237v9.586A1.75 1.75 0 0 1 13.25 16h-9.5A1.75 1.75 0 0 1 2 14.25Zm1.75-.25a.25.25 0 0 0-.25.25v12.5c0 .138.112.25.25.25h9.5a.25.25 0 0 0 .25-.25V4.664a.25.25 0 0 0-.073-.177l-2.914-2.914a.25.25 0 0 0-.177-.073Z"/></svg>
